logos/loom.svg

<?xml version="1.0" encoding="UTF-8"?>
<svg width="512px" height="155px" viewBox="0 0 512 155" version="1.1" xmlns="http://www.w3.org/2000/svg" xmlns:xlink="http://www.w3.org/1999/xlink" preserveAspectRatio="xMidYMid">
		<g>
				<path d="M263.69628,54.6346328 C287.217348,54.6346328 303.959504,72.5319224 303.959504,95.2604897 C303.959504,118.355027 287.039084,135.84524 263.69628,135.84524 C240.343707,135.84524 223.433056,118.524337 223.433056,95.2604897 C223.433056,72.3672521 240.28917,54.6346328 263.69628,54.6346328 Z M348.238143,54.6346328 C371.759211,54.6346328 388.501367,72.5319224 388.501367,95.2604897 C388.501367,118.355027 371.571994,135.84524 348.238143,135.84524 C324.885571,135.84524 307.974919,118.524337 307.974919,95.2604897 C307.974919,72.3672521 324.831033,54.6346328 348.238143,54.6346328 Z M484.257577,54.7129386 C498.439733,54.7129386 512,63.2910957 512,83.8735771 L512,133.622232 L491.893622,133.622232 L491.893622,88.0876057 C491.893622,79.8204744 487.837507,73.5847377 478.329285,73.5847377 C469.442951,73.5847377 464.142245,80.4472471 464.142245,88.7143784 L464.142245,133.627116 L443.57352,133.627116 L443.57352,88.0876057 C443.57352,79.8204744 439.366003,73.5847377 430.009183,73.5847377 C420.967377,73.5847377 415.665857,80.2916935 415.665857,88.7143784 L415.665857,133.627116 L394.94166,133.627116 L394.94166,56.8952471 L414.737094,56.8952471 L414.737094,66.255649 C418.943797,58.7710067 428.767847,54.7129386 437.182067,54.7129386 C447.629634,54.7129386 456.043854,59.237586 459.939612,67.5000776 C466.014423,58.1395943 474.126652,54.7129386 484.257577,54.7129386 Z M216.850315,20.7158944 L216.850315,133.622232 L196.121234,133.622232 L196.121234,20.7158944 L216.850315,20.7158944 Z M348.238143,73.1541367 C336.055962,73.1541367 326.144814,83.0726105 326.144814,95.2556057 C326.144814,107.439415 336.055962,117.357889 348.238143,117.357889 C360.41951,117.357889 370.331472,107.439415 370.331472,95.2556057 C370.326588,83.0726105 360.41544,73.1541367 348.238143,73.1541367 Z M263.69628,73.4149393 C251.651663,73.4149393 241.854474,83.2142448 241.854474,95.2653736 C241.854474,107.315688 251.651663,117.11532 263.69628,117.11532 C275.740897,117.11532 285.533202,107.315688 285.533202,95.2653736 C285.533202,83.2142448 275.740897,73.4149393 263.69628,73.4149393 Z" fill="#222222"></path>
				<path d="M154.341545,68.588627 L109.209844,68.588627 L148.296038,46.0222067 L139.712509,31.1507638 L100.626315,53.7171027 L123.187688,14.6340019 L108.316083,6.04532808 L85.7547091,45.1283638 L85.7547091,0 L68.5866734,0 L68.5866734,45.1326779 L46.0166715,6.04532808 L31.1498684,14.6296878 L53.7155561,53.7127886 L14.6292808,31.1507638 L6.04516528,46.0178925 L45.1314569,68.5843129 L0,68.5843129 L0,85.7530811 L45.1271428,85.7530811 L6.04516528,108.319339 L14.6292808,123.190944 L53.711242,100.628757 L31.1455542,139.711695 L46.0166715,148.296038 L68.5823593,109.20903 L68.5823593,154.341545 L85.7506391,154.341545 L85.7506391,109.2131 L108.312013,148.296038 L123.182804,139.711695 L100.617361,100.624687 L139.703555,123.190944 L148.287898,108.319339 L109.205774,85.757151 L154.332591,85.757151 L154.332591,68.588627 L154.341545,68.588627 Z M77.1707727,100.520496 C64.2255568,100.520496 53.7328127,90.028159 53.7328127,77.0822919 C53.7328127,64.136669 64.2255568,53.6436808 77.1707727,53.6436808 C90.11607,53.6436808 100.608407,64.136669 100.608407,77.0822919 C100.608407,90.028159 90.11607,100.520496 77.1707727,100.520496 Z" fill="#625DF5"></path>
		</g>
</svg>

<svg width="512" height="155" xmlns="http://www.w3.org/2000/svg" preserveAspectRatio="xMidYMid">
	<path d="M263.696 54.635c23.521 0 40.264 17.897 40.264 40.625 0 23.095-16.92 40.585-40.264 40.585-23.352 0-40.263-17.32-40.263-40.585 0-22.893 16.856-40.625 40.263-40.625Zm84.542 0c23.521 0 40.263 17.897 40.263 40.625 0 23.095-16.929 40.585-40.263 40.585-23.352 0-40.263-17.32-40.263-40.585 0-22.893 16.856-40.625 40.263-40.625Zm136.02.078c14.182 0 27.742 8.578 27.742 29.16v49.75h-20.106V88.087c0-8.268-4.056-14.503-13.565-14.503-8.886 0-14.187 6.862-14.187 15.13v44.912h-20.568v-45.54c0-8.267-4.208-14.502-13.565-14.502-9.042 0-14.343 6.707-14.343 15.13v44.912h-20.724V56.895h19.795v9.36c4.207-7.484 14.03-11.542 22.445-11.542 10.448 0 18.862 4.525 22.758 12.787 6.074-9.36 14.187-12.787 24.318-12.787ZM216.85 20.716v112.906h-20.729V20.716h20.73Zm131.388 52.438c-12.182 0-22.093 9.919-22.093 22.102s9.911 22.102 22.093 22.102 22.093-9.919 22.093-22.102c-.004-12.183-9.916-22.102-22.093-22.102Zm-84.542.26c-12.044 0-21.842 9.8-21.842 21.851 0 12.05 9.798 21.85 21.842 21.85 12.045 0 21.837-9.8 21.837-21.85s-9.792-21.85-21.837-21.85Z" fill="#222"/>
	<path d="M154.342 68.589H109.21l39.086-22.567-8.583-14.871-39.087 22.566 22.562-39.083-14.872-8.589-22.561 39.083V0H68.587v45.133L46.017 6.045 31.15 14.63l22.566 39.083L14.629 31.15 6.045 46.018l39.086 22.566H0v17.17h45.127L6.045 108.318l8.584 14.872 39.082-22.562-22.565 39.083 14.87 8.584 22.566-39.087v45.133h17.169v-45.129l22.561 39.083 14.87-8.584-22.565-39.087 39.087 22.566 8.584-14.872-39.082-22.562h45.127V68.59h.009ZM77.17 100.52c-12.945 0-23.438-10.492-23.438-23.438 0-12.945 10.493-23.438 23.438-23.438 12.945 0 23.437 10.493 23.437 23.438 0 12.946-10.492 23.438-23.437 23.438Z" fill="#625DF5"/>
</svg>
